X:102
T:Lakevie
R:jig
C:Bruce Osborne  --  Mar. 1994
Z:abc by bosborne@kos.net
M:6/8
L:1/8
K:A
A/B/|cBA EFE|CDF E2 E|FAc efe|cBA BAB|\
cBA EFE|CDF E2 E|FAc efe|EGB A2:|
|:g|aga faf|eaf ecA|A,CE Ace|aec Bce|\
aga faf|eaf ecA|A,CE Ace|EGB A2:|
